Themes/OneUI/assets/svg/sec_ic_settings_devicecare.svg

<?xml version="1.0" encoding="UTF-8" standalone="no"?>
<svg
   width="28.000021"
   height="28.000021"
   viewBox="0 0 28.000021 28.000021"
   fill="none"
   version="1.1"
   id="svg1979"
   sodipodi:docname="sec_ic_settings_devicecare.svg"
   xmlns:inkscape="http://www.inkscape.org/namespaces/inkscape"
   xmlns:sodipodi="http://sodipodi.sourceforge.net/DTD/sodipodi-0.dtd"
   xmlns="http://www.w3.org/2000/svg"
   xmlns:svg="http://www.w3.org/2000/svg">
  <sodipodi:namedview
     id="namedview1981"
     pagecolor="#ffffff"
     bordercolor="#666666"
     borderopacity="1.0"
     inkscape:showpageshadow="2"
     inkscape:pageopacity="0.0"
     inkscape:pagecheckerboard="0"
     inkscape:deskcolor="#d1d1d1" />
  <g
     clip-path="url(#clip0_1_1419)"
     id="g1972">
    <path
       d="M 24.856,3.14401 C 23.13,1.52161 20.7739,0.601214 18.1738,0.256914 15.6907,-0.072186 14,0.00881404 14,0.00881404 c 0,0 -1.691,-0.08100004 -4.17421,0.24809996 -2.6,0.3443 -4.956,1.264696 -6.6815,2.887096 -1.6228,1.7258 -2.543099,4.0819 -2.887599,6.6819 -0.3291004,2.48299 -0.2478004,4.17399 -0.2478004,4.17399 0,0 -0.0813,1.6908 0.2478004,4.174 0.3445,2.5998 1.264799,4.9561 2.887399,6.6819 1.7257,1.6226 4.0817,2.5428 6.6817,2.8875 C 12.309,28.0722 14,27.9912 14,27.9912 c 0,0 1.6907,0.081 4.1738,-0.2479 2.6001,-0.3447 4.9562,-1.2649 6.6818,-2.8875 1.623,-1.7258 2.5432,-4.0821 2.8877,-6.6819 0.3289,-2.4832 0.2479,-4.174 0.2479,-4.174 0,0 0.081,-1.691 -0.2479,-4.17399 -0.3445,-2.6 -1.2647,-4.9561 -2.8873,-6.6819 z"
       fill="#05bba5"
       id="path1968" />
    <path
       d="m 11.7894,5.48392 c 0.468,-0.124 0.946,0.155 1.069,0.623 0.124,0.467 -0.155,0.945 -0.622,1.069 -2.67101,0.705 -4.66501,2.92398 -5.08101,5.65498 -0.278,1.828 0.172,3.655 1.268,5.145 1.095,1.49 2.70601,2.464 4.53401,2.742 2.831,0.431 5.676,-0.955 7.08,-3.448 0.236,-0.422 0.77,-0.571 1.191,-0.334 0.421,0.237 0.571,0.771 0.333,1.192 -1.544,2.745 -4.482,4.418 -7.577,4.418 -0.428,0 -0.86,-0.032 -1.29,-0.098 -2.291,-0.349 -4.30801,-1.568 -5.68101,-3.435 -1.373,-1.866 -1.937,-4.155 -1.588,-6.446 0.521,-3.41998 3.019,-6.19998 6.36401,-7.08298 z m 2.6303,4.67588 c 2.015,0 3.654,1.639 3.654,3.654 0,2.014 -1.639,3.653 -3.654,3.653 -1.994,0 -3.617,-1.605 -3.65,-3.591 l -0.218,0.217 c -0.146,0.147 -0.338,0.22 -0.53,0.22 -0.19201,0 -0.38401,-0.073 -0.53001,-0.22 -0.293,-0.293 -0.293,-0.768 0,-1.06 l 1.31201,-1.313 c 0.452,-0.452 1.187,-0.452 1.639,0 l 1.311,1.31 c 0.293,0.293 0.293,0.769 0,1.061 -0.293,0.293 -0.768,0.293 -1.061,0 l -0.426,-0.426 v 0.149 c 0,1.187 0.966,2.153 2.153,2.153 1.188,0 2.154,-0.966 2.154,-2.153 0,-1.187 -0.966,-2.154 -2.154,-2.154 -0.414,0 -0.75,-0.336 -0.75,-0.75 0,-0.414 0.336,-0.75 0.75,-0.75 z m 0.7152,-4.05188 c 0.123,-0.467 0.6,-0.747 1.068,-0.625 3.878,1.014 6.598,4.65698 6.468,8.66298 -0.015,0.473 -0.404,0.846 -0.874,0.846 h -0.029 c -0.483,-0.016 -0.862,-0.42 -0.846,-0.904 0.104,-3.196 -2.067,-6.10298 -5.161,-6.91198 -0.468,-0.122 -0.748,-0.6 -0.626,-1.068 z"
       fill="#ffffff"
       id="path1970" />
  </g>
  <defs
     id="defs1977">
    <clipPath
       id="clip0_1_1419">
      <rect
         width="28"
         height="28"
         fill="#ffffff"
         id="rect1974"
         x="0"
         y="0" />
    </clipPath>
  </defs>
</svg>

<svg width="28" height="28" viewBox="0 0 28 28" fill="none" xmlns="http://www.w3.org/2000/svg">
<g clip-path="url(#clip0_1_1419)">
<path d="M24.856 3.14401C23.13 1.52161 20.7739 0.601214 18.1738 0.256914C15.6907 -0.072186 14 0.00881404 14 0.00881404C14 0.00881404 12.309 -0.072186 9.82579 0.256914C7.22579 0.601214 4.86979 1.52161 3.14429 3.14401C1.52149 4.86981 0.601191 7.22591 0.256691 9.82591C-0.0724094 12.3089 0.0088906 13.9999 0.0088906 13.9999C0.0088906 13.9999 -0.0724094 15.6907 0.256691 18.1739C0.601191 20.7737 1.52149 23.13 3.14409 24.8558C4.86979 26.4784 7.22579 27.3986 9.82579 27.7433C12.309 28.0722 14 27.9912 14 27.9912C14 27.9912 15.6907 28.0722 18.1738 27.7433C20.7739 27.3986 23.13 26.4784 24.8556 24.8558C26.4786 23.13 27.3988 20.7737 27.7433 18.1739C28.0722 15.6907 27.9912 13.9999 27.9912 13.9999C27.9912 13.9999 28.0722 12.3089 27.7433 9.82591C27.3988 7.22591 26.4786 4.86981 24.856 3.14401Z" fill="#05BBA5"/>
<path d="M11.7894 5.48392C12.2574 5.35992 12.7354 5.63892 12.8584 6.10692C12.9824 6.57392 12.7034 7.05192 12.2364 7.17592C9.56539 7.88092 7.57139 10.0999 7.15539 12.8309C6.87739 14.6589 7.32739 16.4859 8.42339 17.9759C9.51839 19.4659 11.1294 20.4399 12.9574 20.7179C15.7884 21.1489 18.6334 19.7629 20.0374 17.2699C20.2734 16.8479 20.8074 16.6989 21.2284 16.9359C21.6494 17.1729 21.7994 17.7069 21.5614 18.1279C20.0174 20.8729 17.0794 22.5459 13.9844 22.5459C13.5564 22.5459 13.1244 22.5139 12.6944 22.4479C10.4034 22.0989 8.38639 20.8799 7.01339 19.0129C5.64039 17.1469 5.07639 14.8579 5.42539 12.5669C5.94639 9.14692 8.44439 6.36692 11.7894 5.48392ZM14.4197 10.1598C16.4347 10.1598 18.0737 11.7988 18.0737 13.8138C18.0737 15.8278 16.4347 17.4668 14.4197 17.4668C12.4257 17.4668 10.8027 15.8618 10.7697 13.8758L10.5517 14.0928C10.4057 14.2398 10.2137 14.3128 10.0217 14.3128C9.82969 14.3128 9.63769 14.2398 9.49169 14.0928C9.19869 13.7998 9.19869 13.3248 9.49169 13.0328L10.8037 11.7198C11.2557 11.2678 11.9907 11.2678 12.4427 11.7198L13.7537 13.0298C14.0467 13.3228 14.0467 13.7988 13.7537 14.0908C13.4607 14.3838 12.9857 14.3838 12.6927 14.0908L12.2667 13.6648V13.8138C12.2667 15.0008 13.2327 15.9668 14.4197 15.9668C15.6077 15.9668 16.5737 15.0008 16.5737 13.8138C16.5737 12.6268 15.6077 11.6598 14.4197 11.6598C14.0057 11.6598 13.6697 11.3238 13.6697 10.9098C13.6697 10.4958 14.0057 10.1598 14.4197 10.1598ZM15.1349 6.10792C15.2579 5.64092 15.7349 5.36092 16.2029 5.48292C20.0809 6.49692 22.8009 10.1399 22.6709 14.1459C22.6559 14.6189 22.2669 14.9919 21.7969 14.9919H21.7679C21.2849 14.9759 20.9059 14.5719 20.9219 14.0879C21.0259 10.8919 18.8549 7.98492 15.7609 7.17592C15.2929 7.05392 15.0129 6.57592 15.1349 6.10792Z" fill="white"/>
</g>
<defs>
<clipPath id="clip0_1_1419">
<rect width="28" height="28" fill="white"/>
</clipPath>
</defs>
</svg>
